X:1
T:Title
%%score { 1 | 2 }
L:1/8
Q:1/4=106
M:4/4
K:F
V:1 treble nm="Grand Piano"
V:2 bass 
V:1
 F2 F2 FEFG | A2 A2 A4 | cccc dcBA | [FA]4 [EG]4 | F2 F2 FEFG | A2 A2 A4 | cccc dcBA | [EG]4 F4 | %8
w: Frank~M.~Davis * * * * *||||||||
 A2 c2 [Af]4 | [Fd]2 [Ff]2 c4 | c4 A4 | [FA]4 [EG]4 | [FA]2 [Fc]2 [Af]4 | [Fd]2 [Ff]2 c4 | c4 A4 | %15
w: |||||||
 [EG]4 F4 |] %16
w: |
V:2
 [F,A,C]2 [F,A,C]2 [F,A,C][F,G,C][F,A,C][F,B,C] | [F,CF]2 [F,CF]2 [F,CF]4 | %2
 [F,A,F][F,A,F][F,A,F][F,A,F] [F,B,F][F,A,F][F,DF][F,CF] | [C,C]4 [C,C]4 | %4
 [F,A,C]2 [F,A,C]2 [F,A,C][F,G,C][F,A,C][F,B,D] | [F,CF]2 [F,CF]2 [F,CF]4 | %6
 [F,A,F][F,A,F][F,A,F][F,A,F] [F,B,F][F,A,F][F,DF][F,CF] | [C,B,]4 [F,A,]4 | %8
 [F,CF]2 [F,A,F]2 [F,C]4 | [B,,B,]2 [D,B,]2 [F,A,F]4 | [F,A,F]4 [F,CF]4 | [C,C]4 [C,C]4 | %12
 [F,C]2 [F,A,]2 [F,C]4 | [B,,B,]2 [D,B,]2 [F,A,F]4 | [F,A,F]4 [F,CF]4 | [C,B,]4 [F,A,]4 |] %16

